dist/assets/img/catalog-icon-03.svg

<svg width="25" height="27" fill="none" xmlns="http://www.w3.org/2000/svg"><path d="M0 0v4h1v21h2v2h1v-2h17v2h1v-2h2V4h1V0H0Zm23 24H2v-9h21v-1H2V4h21v20Zm1-21H1V1h23v2Zm-9 7h-5v1h5v-1Zm-5 9h5v-1h-5v1Z" fill="#000"/></svg>

<svg width="25" height="27" viewBox="0 0 25 27" fill="none" xmlns="http://www.w3.org/2000/svg">
<path d="M0 0V4H1V25H3V27H4V25H21V27H22V25H24V4H25V0H0ZM23 24H2V15H23V14H2V4H23V24ZM24 3H1V1H24V3ZM15 10H10V11H15V10ZM10 19H15V18H10V19Z" fill="black"/>
</svg>
